preferences/32/preferences-desktop-text-to-speech.svg

<?xml version="1.0" encoding="UTF-8" standalone="no"?>
<!-- Created with Inkscape (http://www.inkscape.org/) -->

<svg
   width="32"
   height="32"
   version="1.1"
   viewBox="0 0 32 32"
   id="svg22"
   sodipodi:docname="preferences-desktop-text-to-speech.svg"
   inkscape:version="1.1.2 (0a00cf5339, 2022-02-04)"
   xmlns:inkscape="http://www.inkscape.org/namespaces/inkscape"
   xmlns:sodipodi="http://sodipodi.sourceforge.net/DTD/sodipodi-0.dtd"
   xmlns:xlink="http://www.w3.org/1999/xlink"
   xmlns="http://www.w3.org/2000/svg"
   xmlns:svg="http://www.w3.org/2000/svg">
  <sodipodi:namedview
     id="namedview24"
     pagecolor="#ffffff"
     bordercolor="#666666"
     borderopacity="1.0"
     inkscape:showpageshadow="2"
     inkscape:pageopacity="0.0"
     inkscape:pagecheckerboard="0"
     inkscape:deskcolor="#d1d1d1"
     showgrid="false"
     inkscape:zoom="36.232151"
     inkscape:cx="12.833905"
     inkscape:cy="17.305072"
     inkscape:window-width="3440"
     inkscape:window-height="1356"
     inkscape:window-x="0"
     inkscape:window-y="0"
     inkscape:window-maximized="1"
     inkscape:current-layer="g91397"
     inkscape:pageshadow="2" />
  <defs
     id="defs12">
    <linearGradient
       inkscape:collect="always"
       id="linearGradient917">
      <stop
         style="stop-color:#44a803;stop-opacity:1"
         offset="0"
         id="stop913" />
      <stop
         style="stop-color:#6ed005;stop-opacity:1"
         offset="1"
         id="stop915" />
    </linearGradient>
    <linearGradient
       id="linearGradient1005-3-3"
       x1="5.2535"
       x2="9.3823996"
       y1="15.383"
       y2="2.9421"
       gradientTransform="matrix(0.99999,0,0,0.99999,1.632,-0.61743)"
       gradientUnits="userSpaceOnUse">
      <stop
         stop-color="#fa8200"
         offset="0"
         id="stop2" />
      <stop
         stop-color="#ff9600"
         offset=".36953"
         id="stop4" />
      <stop
         stop-color="#ffb400"
         offset="1"
         id="stop6" />
    </linearGradient>
    <filter
       id="filter4014"
       x="-0.062499933"
       y="-0.057692993"
       width="1.1249999"
       height="1.115386"
       color-interpolation-filters="sRGB">
      <feGaussianBlur
         stdDeviation="1.093751"
         id="feGaussianBlur9" />
    </filter>
    <linearGradient
       inkscape:collect="always"
       xlink:href="#linearGradient3487"
       id="linearGradient3403"
       gradientUnits="userSpaceOnUse"
       x1="6.9491749"
       y1="4.5549412"
       x2="11.215498"
       y2="59.052471" />
    <linearGradient
       id="linearGradient3487">
      <stop
         style="stop-color:#32373c;stop-opacity:1"
         offset="0"
         id="stop3481" />
      <stop
         id="stop3483"
         offset="0.36804965"
         style="stop-color:#1a1a1a;stop-opacity:1" />
      <stop
         style="stop-color:#31363b;stop-opacity:1"
         offset="1"
         id="stop3485" />
    </linearGradient>
    <linearGradient
       inkscape:collect="always"
       xlink:href="#linearGradient20604"
       id="linearGradient20558"
       gradientUnits="userSpaceOnUse"
       x1="25.802212"
       y1="20.373846"
       x2="25.111048"
       y2="58.912758" />
    <linearGradient
       id="linearGradient20604">
      <stop
         id="stop20598"
         offset="0"
         style="stop-color:#3d3d3d;stop-opacity:1" />
      <stop
         style="stop-color:#000000;stop-opacity:1"
         offset="0.61772454"
         id="stop20600" />
      <stop
         id="stop20602"
         offset="1"
         style="stop-color:#3d3d3d;stop-opacity:1" />
    </linearGradient>
    <filter
       inkscape:collect="always"
       style="color-interpolation-filters:sRGB"
       id="filter20720"
       x="-0.017024755"
       y="-0.016457183"
       width="1.0340491"
       height="1.0329144">
      <feGaussianBlur
         inkscape:collect="always"
         stdDeviation="0.14745661"
         id="feGaussianBlur20722" />
    </filter>
    <linearGradient
       gradientTransform="translate(0.36067797,-0.13016949)"
       xlink:href="#linearGradient4555"
       id="linearGradient4557"
       x1="43.499737"
       y1="64.011795"
       x2="44.141731"
       y2="0.30621234"
       gradientUnits="userSpaceOnUse" />
    <linearGradient
       id="linearGradient4555">
      <stop
         style="stop-color:#141618;stop-opacity:1"
         offset="0"
         id="stop4551" />
      <stop
         id="stop4559"
         offset="0.51820582"
         style="stop-color:#686868;stop-opacity:1" />
      <stop
         style="stop-color:#31363b;stop-opacity:1"
         offset="1"
         id="stop4553" />
    </linearGradient>
    <filter
       style="color-interpolation-filters:sRGB"
       id="filter4601"
       x="-0.030244762"
       width="1.0604895"
       y="-0.030100647"
       height="1.0602013">
      <feGaussianBlur
         stdDeviation="0.014790289"
         id="feGaussianBlur4603" />
    </filter>
    <linearGradient
       inkscape:collect="always"
       xlink:href="#linearGradient917"
       id="linearGradient919"
       x1="7.400631"
       y1="41.743092"
       x2="33.063145"
       y2="7.1074457"
       gradientUnits="userSpaceOnUse"
       gradientTransform="matrix(0.65875771,0,0,0.65875771,0.25841203,0.21589031)" />
    <linearGradient
       inkscape:collect="always"
       xlink:href="#linearGradient4410"
       id="linearGradient4183"
       y1="8.9999599"
       x1="9"
       y2="20.573797"
       x2="20.522627"
       gradientUnits="userSpaceOnUse" />
    <linearGradient
       inkscape:collect="always"
       id="linearGradient4410">
      <stop
         style="stop-color:#383e51"
         id="stop4412" />
      <stop
         offset="1"
         style="stop-color:#655c6f;stop-opacity:0"
         id="stop4414" />
    </linearGradient>
    <linearGradient
       inkscape:collect="always"
       xlink:href="#linearGradient4374"
       id="linearGradient4362"
       y1="538.79797"
       y2="524.79797"
       x2="0"
       gradientUnits="userSpaceOnUse"
       gradientTransform="translate(-384.57143,-515.798)" />
    <linearGradient
       inkscape:collect="always"
       id="linearGradient4374">
      <stop
         style="stop-color:#bcfd93"
         id="stop4376" />
      <stop
         offset="1"
         style="stop-color:#fafff5"
         id="stop4378" />
    </linearGradient>
  </defs>
  <rect
     style="display:inline;fill:url(#linearGradient919);fill-opacity:1;fill-rule:evenodd;stroke:none;stroke-width:0.611209;stroke-linejoin:round;stroke-miterlimit:7.8"
     id="rect1192"
     width="27.723557"
     height="28.13693"
     x="2.3420036"
     y="2.2043438"
     ry="0"
     inkscape:label="arriere" />
  <g
     id="g91397"
     transform="matrix(1.1052827,0,0,1.1052827,-425.15121,-572.87072)">
    <path
       style="opacity:0.2;fill:url(#linearGradient4183);fill-rule:evenodd"
       id="path4164"
       d="m 14,9 v 6 L 25.375,26.375 A 13.999979,14.000013 0 0 0 30,16 L 23,9 Z m -1,6 -4,6 8.859375,8.859375 A 13.999979,14.000013 0 0 0 24.84375,26.84375 Z"
       transform="translate(384.57143,515.798)" />
    <path
       style="fill:url(#linearGradient4362);stroke-width:2.8;stroke-opacity:0.550265"
       id="path4147"
       d="m 14,9 v 6 h 6 v 3 l 3,-3 V 9 Z m 1,1 h 7 v 4 h -7 z m -2.5,5 -0.5,0.400391 -2,1.666015 V 17 H 9 v 0.5 3 0.5 h 1 V 20.93359 L 12,22.599609 12.5,23 H 13 v -8 z"
       transform="translate(384.57143,515.798)" />
  </g>
  <path
     style="display:inline;mix-blend-mode:normal;fill:url(#linearGradient3403);fill-opacity:1;stroke:url(#linearGradient20558);stroke-width:1.16242;stroke-linecap:butt;stroke-linejoin:round;stroke-miterlimit:4;stroke-dasharray:none;stroke-opacity:1;filter:url(#filter20720)"
     d="M 4.7043071,3.9814882 4.6913695,60.80196 H 58.59546 l 1.022155,-2.866369 c 0,0 -23.87537,0.766388 -32.844441,-4.140386 C 16.257548,48.042344 11.401114,4.0978197 11.401114,4.0978197 Z"
     id="path1686"
     sodipodi:nodetypes="ccccscc"
     transform="matrix(0.49530655,0,0,0.49530655,0.32409325,0.23228439)"
     inkscape:label="folder" />
  <rect
     style="display:inline;fill:none;fill-opacity:1;stroke:url(#linearGradient4557);stroke-width:3.71366;stroke-linejoin:round;stroke-miterlimit:7.8;stroke-dasharray:none;stroke-opacity:0.995146;filter:url(#filter4601)"
     id="rect4539"
     width="62.567089"
     height="62.866646"
     x="1.0323594"
     y="0.59551275"
     ry="6.2447233"
     rx="5.8029528"
     transform="matrix(0.46399463,0,0,0.4630489,1.1562887,1.2331482)"
     inkscape:label="contour" />
  <g
     id="g842"
     transform="translate(-421.47215,-515.96058)" />
</svg>

<svg width="32" height="32" version="1.1" viewBox="0 0 32 32" xmlns="http://www.w3.org/2000/svg" xmlns:xlink="http://www.w3.org/1999/xlink">
<defs>
<linearGradient id="linearGradient3403" x1="6.9492" x2="11.215" y1="4.5549" y2="59.052" gradientUnits="userSpaceOnUse">
<stop style="stop-color:#32373c" offset="0"/>
<stop style="stop-color:#1a1a1a" offset=".36805"/>
<stop style="stop-color:#31363b" offset="1"/>
</linearGradient>
<linearGradient id="linearGradient20558" x1="25.802" x2="25.111" y1="20.374" y2="58.913" gradientUnits="userSpaceOnUse">
<stop style="stop-color:#3d3d3d" offset="0"/>
<stop offset=".61772"/>
<stop style="stop-color:#3d3d3d" offset="1"/>
</linearGradient>
<linearGradient id="linearGradient4557" x1="43.5" x2="44.142" y1="64.012" y2=".30621" gradientTransform="translate(.36068 -.13017)" gradientUnits="userSpaceOnUse">
<stop style="stop-color:#141618" offset="0"/>
<stop style="stop-color:#686868" offset=".51821"/>
<stop style="stop-color:#31363b" offset="1"/>
</linearGradient>
<linearGradient id="linearGradient919" x1="7.4006" x2="33.063" y1="41.743" y2="7.1074" gradientTransform="matrix(.65876 0 0 .65876 .25841 .21589)" gradientUnits="userSpaceOnUse">
<stop style="stop-color:#44a803" offset="0"/>
<stop style="stop-color:#6ed005" offset="1"/>
</linearGradient>
<linearGradient id="linearGradient4183" x1="9" x2="20.523" y1="9" y2="20.574" gradientUnits="userSpaceOnUse">
<stop style="stop-color:#383e51" offset="0"/>
<stop style="stop-color:#655c6f;stop-opacity:0" offset="1"/>
</linearGradient>
<linearGradient id="linearGradient4362" x2="0" y1="538.8" y2="524.8" gradientTransform="translate(-384.57 -515.8)" gradientUnits="userSpaceOnUse">
<stop style="stop-color:#bcfd93" offset="0"/>
<stop style="stop-color:#fafff5" offset="1"/>
</linearGradient>
</defs>
<rect x="2.342" y="2.2043" width="27.724" height="28.137" ry="0" style="fill-rule:evenodd;fill:url(#linearGradient919)"/>
<g transform="matrix(1.1053 0 0 1.1053 -425.15 -572.87)">
<path transform="translate(384.57 515.8)" d="m14 9v6l11.375 11.375a14 14 0 0 0 4.625-10.375l-7-7zm-1 6-4 6 8.8594 8.8594a14 14 0 0 0 6.9844-3.0156z" style="fill-rule:evenodd;fill:url(#linearGradient4183);opacity:.2"/>
<path transform="translate(384.57 515.8)" d="m14 9v6h6v3l3-3v-6zm1 1h7v4h-7zm-2.5 5-0.5 0.40039-2 1.666v-0.066406h-1v4h1v-0.06641l2 1.666 0.5 0.40039h0.5v-8z" style="fill:url(#linearGradient4362);stroke-opacity:.55026;stroke-width:2.8"/>
</g>
<path transform="matrix(.49531 0 0 .49531 .32409 .23228)" d="m4.7043 3.9815-0.012938 56.82h53.904l1.0222-2.8664s-23.875 0.76639-32.844-4.1404c-10.516-5.7529-15.372-49.697-15.372-49.697z" style="fill:url(#linearGradient3403);mix-blend-mode:normal;stroke-linejoin:round;stroke-width:1.1624;stroke:url(#linearGradient20558)"/>
<rect transform="matrix(.46399 0 0 .46305 1.1563 1.2331)" x="1.0324" y=".59551" width="62.567" height="62.867" rx="5.803" ry="6.2447" style="fill:none;stroke-linejoin:round;stroke-miterlimit:7.8;stroke-opacity:.99515;stroke-width:3.7137;stroke:url(#linearGradient4557)"/>
</svg>
